X:1
T:Amor io mi ribello
T:Benedetto Ferrari
T:Source : Musiche Varie a voce sola---Libro secondo---Venetia---B.Magni---1637. Editor : André Vierendeels (04/01/17).
T:Notes : Original clefs : C1, F4. From m 16 to m 18, BC notated in C4 Original note values have been halved in 3-beat measures Figures in BC are notated in original print 
T:Amor io mi ribello
T:©
T:©
T:©
C:Benedetto Ferrari
Z:©
%%score 1 2
L:1/8
Q:1/4=120
M:6/4
K:C
V:1 treble nm="Soprano" snm="S"
V:2 bass nm="MusicXML Part"
V:1
 z2 d^c de c6 | z2 z EFG E4 E2- | D2 de f4 e4- | e2 d2 c2 c4 _B2 | T_B4 A2 A6 | z2 ge fg f2 fd ef | %6
w: A- * * * mor,|io mi ri- bel- lo|_ dal _ _ tuo|_ spie- * ta- to'im-|pe- * ro,|dal _ _ _ _ tuo _ _ _|
w: Non, _ _ _ _|non te- mo'il tuo va-|* lo- * re, ra-|* gion scher- mo mi|fa- * ce,|m"as- * * * * si- * * *|
w: Ma- * * * le,|ma- le dir- ti vor-|rei nu- * me, che|_ l'al- me in- *|fe- * sti,|ma _ _ _ _ non _ _ _|
 e2 ec de d2 gf ed | ^c3 B A2 A2 d2 A2 | B2 e2 B2 ^c2 f2 c2 | d2 e2 f2 f2 e4 |[M:3/4] d6 :: %11
w: _ re- * * * gi- st'o _ _ _|fe- ro _ il no- me|mio can- * * * *|* * * cel- *|lo|
w: * cu- * * * ra la _ _ _|pa- ce, _ dal gra- ve|tuo fu- * * * *|* * * * ro-|re,|
w: _ vuo, _ _ _ _ ne _ _ _|sa- prei, _ ma- le- dir|ce- le- * * * *||sti,|
 z2 z E FG |[M:6/4] A4 z2 z2 z GAB | c4 z2 z2 z cde | f4 e2 e2 d4 | c2 c2 c2 c2 c2 c2 | %16
w: e quel- la|fè e quel- la|fè, c'ho de- di-|ca- to'al sem- *|pre di se- guir bel- la|
w: sde- gno _|mi, sde- gno _|mi, sde- gno mi|sguar- da, e mi|di- fen- de in- vit- to,|
w: pur de- si-|o, pur de- si-|o, ma- le dir|chi m'hà pia- ga-|to, di- ro, fre- nan- do'il|
 c4 c2 c4 B2 | cB cd c2 dc de d2 | cB cd c2 BA Bc B2 | A2 A4 G6 | B2 B2 B2 B6- | B3 cdB TB4 B2 | %22
w: si ma- ria fan|ciul- * * * * la _ _ _ _|à _ _ _ _ lui _ _ _ _|ri- tol- go|ed' hor con- sa-|* * * cro'al nul- la,|
w: mi di chia- ro|(in tuo scor- * to for- te re- * a,|in- * * * * i- * * * *|mi- co d'un|Di- o, e d'u-|* * * na De- a,|
w: mio ru- bel pen-|sie- * * * * * * * * ro,|ma- * * * * le- * * * *|det- to fia|l'ar- co, e non|_ _ _ l'ar- cie- ro,|
 A6 fe fg f2 | ed ef e2 d2 d3 ^c | d6 e2 e2 e2 | e12- | e2 efgf e4 e2 |[M:3/4] !fermata!d6 :| %28
w: _ à _ _ _ _|lui _ _ _ _ ri- tol- go|_ ed' hor con-|sa-|* * * * cro'al nul- la.|_|
w: _ in- * * * *|i- * * * * mi- co d'un|_ Di- o, e|d'u-|* * * * na De- a.|_|
w: _ ma- * * * *|le- * * * * det- to fia|_ l'ar- co, e|npn|_ _ _ _ l'ar- cie- ro.|_|
V:2
"^BC""^-natural" D,6 A,,6 | _B,,6 A,,6 | D,6 C,6 |"^5 6""^6" _B,,6 A,,6 |"^b" G,,6 F,,6 | E,6 D,6 | %6
 C,6 _B,,6 |"^6" A,,6 F,,6 |"^6""^6" G,,6 A,,6 | _B,,2 G,,4 A,,6 |[M:3/4] D,,6 :: D,6- | %12
[M:6/4] D,3 C, D,E, F,6- | F,3 E, F,G, A,3 E, F,G, | A,2 F,4 G,2 G,,4 | C,2 CD C_B, A,3 B, A,G, | %16
"^-natural""^7 6" F,2 F,G, F,E, D,6 |"^6" C,6 B,,6 |"^6" A,,6 G,,6 | C,2 D,4 G,,6 | G,6 ^F,6 | %21
"^-natural""^-natural" D,6 E,6 |"^-natural" A,,6 A,6 |"^6" G,6 F,2 E,4 | D,6 C,6 |"^#" _B,,6 A,,6 | %26
"^5""^4#" G,,6 A,,6 |[M:3/4] !fermata!D,6 :| %28

